icons/icn_ojoOculto.svg

<svg width="24" xmlns="http://www.w3.org/2000/svg" height="24" id="screenshot-7f4951e7-eba4-8056-8006-518f0988df62" viewBox="0 0 24 24" xmlns:xlink="http://www.w3.org/1999/xlink" fill="none" version="1.1"><g id="shape-7f4951e7-eba4-8056-8006-518f0988df62"><g class="frame-container-wrapper"><g class="frame-container-blur"><g class="frame-container-shadows"><g fill="none"><g class="fills" id="fills-7f4951e7-eba4-8056-8006-518f0988df62"><rect rx="0" ry="0" x="0" y="0" width="24" height="24.000000000000455" transform="matrix(1, 0, 0, 1, 0, 0)" class="frame-background"/></g><g class="frame-children"><g id="shape-7f4951e7-eba4-8056-8006-518ef9526119" width="24" height="24" version="1.1" rx="0" ry="0" style="fill: rgb(0, 0, 0);"><g id="shape-7f4951e7-eba4-8056-8006-518ef9559c9f" style="opacity: 1;"><g class="fills" id="fills-7f4951e7-eba4-8056-8006-518ef9559c9f"><path d="M11.734465599060059,18.580413818359375L10.996184349060059,19.984588623046875C11.329924583435059,20.030487060546875,11.666594505310059,20.056854248046875,12.003996849060059,20.056854248046875C14.043791770935059,20.056854248046875,16.035245895385742,19.155487060546875,17.724699020385742,18.131195068359375C19.435148239135742,17.095184326171875,20.944425582885742,15.848847389221191,21.976652145385742,14.920380592346191C23.412687301635742,13.630707740783691,23.412687301635742,11.374238014221191,21.976652145385742,10.084687232971191C20.971281051635742,9.180390357971191,19.511564254760742,7.975555896759033,17.855558395385742,6.956024646759033L17.170011520385742,8.258637428283691C18.678312301635742,9.198212623596191,20.049406051635742,10.328461647033691,20.994230270385742,11.178437232971191C21.822599411010742,11.922211647033691,21.822599411010742,13.084687232971191,20.994230270385742,13.828705787658691C20.005949020385742,14.717499732971191,18.553068161010742,15.914277076721191,16.962980270385742,16.877288818359375C15.392424583435059,17.829437255859375,13.595793724060059,18.588226318359375,12.003996849060059,18.588226318359375C11.914885520935059,18.588226318359375,11.824797630310059,18.585052490234375,11.734465599060059,18.580291748046875Z" style="display: inline; fill-rule: evenodd; stroke-linejoin: bevel; fill: rgb(0, 0, 0); fill-opacity: 1;"/></g></g><g id="shape-7f4951e7-eba4-8056-8006-518ef95617e5" style="opacity: 1;"><g class="fills" id="fills-7f4951e7-eba4-8056-8006-518ef95617e5"><path d="M17.064542770385742,2.2668159008026123C16.968351364135742,2.2583930492401123,16.871427536010742,2.2690131664276123,16.779386520385742,2.2981879711151123C16.594572067260742,2.3572700023651123,16.440763473510742,2.4871528148651123,16.351652145385742,2.6593940258026123L14.863371849060059,5.485443592071533C13.939543724060059,5.158051013946533,12.978362083435059,4.948334217071533,12.003996849060059,4.948334217071533C9.964934349060059,4.948334217071533,7.970793724060059,5.849823474884033,6.281340599060059,6.874115467071533C4.570891380310059,7.910126209259033,3.0616140365600586,9.156342506408691,2.0293874740600586,10.084809303283691C0.593352198600769,11.374482154846191,0.593352198600769,13.630951881408691,2.0293874740600586,14.920502662658691C3.0613698959350586,15.848847389221191,4.570891380310059,17.095184326171875,6.281340599060059,18.131317138671875C6.756926536560059,18.419525146484375,7.257170677185059,18.696380615234375,7.775481224060059,18.947601318359375L6.347746849060059,21.660369873046875C6.160979270935059,22.019134521484375,6.299895286560059,22.461151123046875,6.658293724060059,22.648651123046875C6.830657005310059,22.738861083984375,7.032073020935059,22.756927490234375,7.217864036560059,22.698577880859375C7.403410911560059,22.640350341796875,7.558440208435059,22.510711669921875,7.648528099060059,22.338104248046875L17.650480270385742,3.3468940258026123C17.743253707885742,3.1736762523651123,17.762540817260742,2.9704291820526123,17.704191207885742,2.7828071117401123C17.645841598510742,2.5951850414276123,17.514493942260742,2.4389350414276123,17.339933395385742,2.3488471508026123C17.254484176635742,2.3036811351776123,17.160734176635742,2.2758491039276123,17.064542770385742,2.2668159008026123ZM12.003996849060059,6.409149646759033C12.699065208435059,6.409149646759033,13.432707786560059,6.556610584259033,14.170012474060059,6.801727771759033L12.683684349060059,9.623749732971191C12.464446067810059,9.573334693908691,12.238127708435059,9.545624732971191,12.003996849060059,9.545624732971191C10.362151145935059,9.545624732971191,8.998137474060059,10.868622779846191,8.998137474060059,12.498627662658691C8.998137474060059,13.376191139221191,9.391448020935059,14.166108131408691,10.009856224060059,14.705536842346191L8.462981224060059,17.642913818359375C7.977385520935059,17.414031982421875,7.500823020935059,17.154876708984375,7.043059349060059,16.877288818359375C5.452971458435059,15.914155006408691,3.9920339584350586,14.717499732971191,3.0039968490600586,13.828705787658691C2.1756277084350586,13.084931373596191,2.1756277084350586,11.922333717346191,3.0039968490600586,11.178437232971191C3.9920339584350586,10.289521217346191,5.452971458435059,9.092865943908691,7.043059349060059,8.129731178283691C8.613615989685059,7.177582263946533,10.413176536560059,6.409149646759033,12.003996849060059,6.409149646759033Z" style="display: inline; fill-rule: evenodd; stroke-linejoin: bevel; fill: rgb(0, 0, 0); fill-opacity: 1;"/></g></g></g></g></g></g></g></g></g></svg>

<svg fill="none" viewBox="0 0 24 24"><g class="frame-container-wrapper"><g class="frame-container-blur"><g class="frame-container-shadows"><g class="fills"><rect width="24" height="24" class="frame-background" rx="0" ry="0"/></g><g fill="#000" class="frame-children"><path fill-rule="evenodd" d="m11.7345 18.5804-.7383 1.4042c.3337.0459.6704.0723 1.0078.0723 2.0398 0 4.0312-.9014 5.7207-1.9257 1.7104-1.036 3.2197-2.2824 4.252-3.2108 1.436-1.2897 1.436-3.5462 0-4.8357-1.0054-.9043-2.4651-2.1091-4.1211-3.1287L17.17 8.2586c1.5083.9396 2.8794 2.0699 3.8242 2.9198.8284.7438.8284 1.9063 0 2.6503-.9883.8888-2.4411 2.0856-4.0312 3.0486-1.5706.9521-3.3672 1.711-4.959 1.711a5.1327 5.1327 0 0 1-.2695-.008ZM17.0645 2.2668a.7323.7323 0 0 0-.2851.0314.7327.7327 0 0 0-.4277.3612l-1.4883 2.826c-.9239-.3273-1.885-.537-2.8594-.537-2.039 0-4.0332.9014-5.7227 1.9257-1.7104 1.036-3.2197 2.2822-4.252 3.2107-1.436 1.2897-1.436 3.5462 0 4.8357 1.032.9283 2.5416 2.1747 4.252 3.2108.4756.2882.9759.565 1.4942.8163l-1.4278 2.7128a.7331.7331 0 0 0 .8702 1.0382.7336.7336 0 0 0 .4306-.3605l10.002-18.9912a.7335.7335 0 0 0-.3106-.998.7372.7372 0 0 0-.2754-.082ZM12.004 6.4091c.695 0 1.4287.1475 2.166.3926l-1.4863 2.822a3.0223 3.0223 0 0 0-.6797-.078c-1.6418 0-3.0059 1.323-3.0059 2.953 0 .8775.3933 1.6674 1.0118 2.2068l-1.547 2.9374c-.4855-.2289-.962-.488-1.4198-.7656-1.5901-.9631-3.051-2.1598-4.0391-3.0486-.8284-.7438-.8284-1.9064 0-2.6503.988-.8889 2.449-2.0855 4.039-3.0487 1.5706-.9521 3.3702-1.7206 4.961-1.7206Z" class="fills"/></g></g></g></g></svg>
